X:82
T:RVW2/2/82 The Little Oyster Girl
C:John Denny, Billericay, Essex, 25 April 1904
L:1/8
Q:1/4=100
M:4/4
I:linebreak $
K:D
"^(Editorial suggestion  " A2 | d2 dd d2 FG | A2 AA A3 d |$ eeee eede | (fe)dB A2 d2 | 
w: O|I was a- wal- king up|fair Lon- don street a|pret- ty lit- tle oy- ster girl I|chanced * for to meet and|
w: |||||
"^*" e2"^*" e"^*"e e2 de |$ fedB A2 FG | A2 AB A2 (fd) | e4 d2 |] 
w: in- to her bas- ket and||||
w: |sli- ly I did peep and I|asked her if she sold _|oy- sters.|



